packages/foundations/assets/icons/functional/images/environment/snow_flake_32.svg

<svg width="32" height="32" viewBox="0 0 32 32" fill="none" xmlns="http://www.w3.org/2000/svg">
<g clip-path="url(#clip0_185_837)">
<path fill-rule="evenodd" clip-rule="evenodd" d="M16.0002 3.125C16.4463 3.125 16.8833 3.49141 16.8752 4L16.8745 5.744L17.9529 4.667C18.2946 4.32529 18.8486 4.32529 19.1903 4.667C19.5036 4.98023 19.5464 5.51889 19.1903 5.90443L16.8745 8.219V14.484L22.5146 11.228L23.3051 8.28008C23.4301 7.81329 23.9099 7.53628 24.3767 7.66136C24.8046 7.77601 25.1248 8.20316 24.9954 8.73301L24.6576 9.991L25.955 9.24223C26.3735 9.0006 26.9086 9.14399 27.1503 9.5625C27.3733 9.94881 27.2573 10.4657 26.8879 10.7223L25.2606 11.663L26.9482 12.1152C27.4149 12.2403 27.6919 12.7201 27.5669 13.1869C27.4522 13.6147 27.014 13.9174 26.5679 13.8251L23.1176 12.9L17.7486 16L23.5456 19.346L26.4952 18.5569C26.962 18.4318 27.4418 18.7088 27.5669 19.1756C27.6815 19.6035 27.4379 20.1204 26.9482 20.2472L25.6896 20.584L26.83 21.2422C27.2485 21.4839 27.3919 22.019 27.1503 22.4375C26.9272 22.8238 26.4158 23.0164 25.955 22.7578L24.5426 21.942L24.9954 23.6294C25.1205 24.0962 24.8435 24.576 24.3767 24.7011C23.9488 24.8157 23.4449 24.5855 23.3051 24.0824L22.3996 20.705L16.8745 17.515V24.142L19.1903 26.458C19.532 26.7997 19.532 27.3537 19.1903 27.6954C18.8771 28.0087 18.3399 28.0669 17.9529 27.6954L16.8745 26.617L16.8752 28C16.8752 28.4832 16.4834 28.875 16.0002 28.875C15.5541 28.875 15.132 28.5166 15.132 28L15.1246 26.617L14.0475 27.6954C13.7058 28.0371 13.1518 28.0371 12.81 27.6954C12.4968 27.3822 12.4424 26.8282 12.81 26.458L15.1246 24.142V17.515L9.59947 20.705L8.69531 24.0824C8.57023 24.5491 8.09044 24.8262 7.62365 24.7011C7.19577 24.5864 6.8697 24.1214 7.00494 23.6294L7.45647 21.942L6.04538 22.7578C5.62688 22.9994 5.09174 22.856 4.85011 22.4375C4.62707 22.0512 4.71737 21.5188 5.17038 21.2422L6.30847 20.584L5.05222 20.2472C4.58544 20.1222 4.30843 19.6424 4.43351 19.1756C4.54816 18.7477 5.0083 18.4244 5.50516 18.5569L8.45347 19.346L14.2506 15.999L8.88147 12.9L5.50516 13.8056C5.03838 13.9306 4.55858 13.6536 4.43351 13.1869C4.31886 12.759 4.52963 12.274 5.05222 12.1152L6.73847 11.663L5.17038 10.7578C4.75188 10.5161 4.60849 9.98101 4.85011 9.5625C5.07315 9.17619 5.57132 8.98898 6.04538 9.24223L7.34147 9.991L7.00494 8.73301C6.87986 8.26623 7.15687 7.78643 7.62365 7.66136C8.05154 7.54671 8.52759 7.75264 8.69531 8.28008L9.48447 11.228L15.1246 14.484V8.219L12.81 5.90443C12.4683 5.56272 12.4683 5.0087 12.81 4.667C13.1233 4.35376 13.6185 4.30241 14.0249 4.63992L15.1246 5.744L15.1252 4C15.1252 3.51675 15.5169 3.125 16.0002 3.125Z" fill="#1A1C1F"/>
</g>
<defs>
<clipPath id="clip0_185_837">
<rect width="32" height="32" fill="white"/>
</clipPath>
</defs>
</svg>

<svg xmlns="http://www.w3.org/2000/svg" width="32" height="32" fill="none"><g clip-path="url(#a)"><path fill="#1A1C1F" fill-rule="evenodd" d="M16 3.125c.446 0 .883.366.875.875v1.744l1.078-1.077a.875.875 0 0 1 1.237 0 .887.887 0 0 1 0 1.237L16.875 8.22v6.265l5.64-3.256.79-2.948a.875.875 0 0 1 1.072-.619.87.87 0 0 1 .618 1.072l-.337 1.258 1.297-.749a.875.875 0 0 1 1.195.32.89.89 0 0 1-.262 1.16l-1.627.941 1.687.452a.875.875 0 0 1 .619 1.072c-.115.428-.553.73-1 .638l-3.45-.925L17.75 16l5.797 3.346 2.95-.79a.875.875 0 0 1 1.07.62c.116.428-.128.944-.618 1.071l-1.258.337 1.14.658a.875.875 0 0 1-.875 1.516l-1.412-.816.452 1.687a.875.875 0 1 1-1.69.453l-.905-3.377-5.525-3.19v6.627l2.315 2.316a.875.875 0 1 1-1.237 1.237l-1.078-1.078V28a.871.871 0 1 1-1.743 0l-.007-1.383-1.078 1.078a.875.875 0 0 1-1.237-1.237l2.315-2.316v-6.627l-5.526 3.19-.904 3.377a.875.875 0 0 1-1.071.62c-.428-.116-.754-.58-.62-1.073l.452-1.687-1.41.816a.875.875 0 0 1-.876-1.516l1.138-.658-1.256-.337a.875.875 0 1 1 .453-1.69l2.948.789 5.798-3.347L8.88 12.9l-3.376.906a.875.875 0 0 1-.453-1.69l1.686-.453-1.568-.905a.875.875 0 0 1 .875-1.516l1.296.749-.336-1.258a.875.875 0 0 1 .619-1.072c.428-.114.904.092 1.071.62l.79 2.947 5.64 3.256V8.219L12.81 5.904a.875.875 0 0 1 0-1.237c.313-.313.808-.365 1.215-.027l1.1 1.104V4c0-.483.392-.875.875-.875" clip-rule="evenodd"/></g><defs><clipPath id="a"><path fill="#fff" d="M0 0h32v32H0z"/></clipPath></defs></svg>
